packages/kaspersky-hexa-ui-icons/src/iconsSVGs/24/PvcK8S.svg

<svg width="24" height="24" viewBox="0 0 24 24" fill="none" xmlns="http://www.w3.org/2000/svg">
<path d="M12 4C11.6545 4 11.3132 4.00726 10.9769 4.02144C10.4251 4.0447 9.99666 4.51087 10.0199 5.06267C10.0432 5.61446 10.5094 6.04292 11.0612 6.01966C11.3693 6.00668 11.6825 6 12 6C12.3175 6 12.6307 6.00668 12.9388 6.01966C13.4906 6.04292 13.9568 5.61446 13.9801 5.06267C14.0033 4.51087 13.5749 4.0447 13.0231 4.02144C12.6868 4.00726 12.3455 4 12 4Z" fill="black"/>
<path d="M8.05357 6.37256C8.59491 6.26315 8.94506 5.73562 8.83565 5.19428C8.72624 4.65294 8.1987 4.30279 7.65736 4.4122C6.93106 4.55899 6.2505 4.74292 5.63211 4.96049C5.11113 5.14378 4.83739 5.71471 5.02068 6.23569C5.20398 6.75668 5.77491 7.03042 6.29589 6.84713C6.81572 6.66423 7.40565 6.50351 8.05357 6.37256Z" fill="black"/>
<path d="M16.3426 4.4122C15.8013 4.30279 15.2738 4.65294 15.1644 5.19428C15.0549 5.73562 15.4051 6.26315 15.9464 6.37256C16.5944 6.50351 17.1843 6.66423 17.7041 6.84713C18.2251 7.03042 18.796 6.75668 18.9793 6.23569C19.1626 5.71471 18.8889 5.14378 18.3679 4.96049C17.7495 4.74292 17.0689 4.55899 16.3426 4.4122Z" fill="black"/>
<path d="M21.5115 7.01582C21.1967 6.56206 20.5736 6.44945 20.1199 6.7643C19.6661 7.07914 19.5535 7.70221 19.8684 8.15596C19.9765 8.31176 20 8.42306 20 8.5C20 8.57694 19.9765 8.68824 19.8684 8.84404C19.5535 9.29779 19.6661 9.92086 20.1199 10.2357C20.5736 10.5505 21.1967 10.4379 21.5115 9.98418C21.8078 9.55717 22 9.05557 22 8.5C22 7.94443 21.8078 7.44283 21.5115 7.01582Z" fill="black"/>
<path d="M4.13164 8.15596C4.44649 7.70221 4.33387 7.07914 3.88012 6.7643C3.42637 6.44945 2.8033 6.56206 2.48845 7.01582C2.19217 7.44283 2 7.94443 2 8.5C2 9.05557 2.19217 9.55717 2.48845 9.98418C2.8033 10.4379 3.42637 10.5505 3.88012 10.2357C4.33387 9.92086 4.44649 9.29779 4.13164 8.84404C4.02355 8.68824 4 8.57694 4 8.5C4 8.42306 4.02355 8.31176 4.13164 8.15596Z" fill="black"/>
<path d="M6.29589 10.1529C5.77491 9.96958 5.20398 10.2433 5.02068 10.7643C4.83739 11.2853 5.11113 11.8562 5.63211 12.0395C6.2505 12.2571 6.93106 12.441 7.65736 12.5878C8.1987 12.6972 8.72624 12.3471 8.83565 11.8057C8.94506 11.2644 8.59491 10.7368 8.05357 10.6274C7.40565 10.4965 6.81572 10.3358 6.29589 10.1529Z" fill="black"/>
<path d="M18.3679 12.0395C18.8889 11.8562 19.1626 11.2853 18.9793 10.7643C18.796 10.2433 18.2251 9.96958 17.7041 10.1529C17.1843 10.3358 16.5944 10.4965 15.9464 10.6274C15.4051 10.7368 15.0549 11.2644 15.1644 11.8057C15.2738 12.3471 15.8013 12.6972 16.3426 12.5878C17.0689 12.441 17.7495 12.2571 18.3679 12.0395Z" fill="black"/>
<path d="M13.0231 12.9786C13.5749 12.9553 14.0033 12.4891 13.9801 11.9373C13.9568 11.3855 13.4906 10.9571 12.9388 10.9803C12.6307 10.9933 12.3175 11 12 11C11.6825 11 11.3693 10.9933 11.0612 10.9803C10.5094 10.9571 10.0432 11.3855 10.0199 11.9373C9.99666 12.4891 10.4251 12.9553 10.9769 12.9786C11.3132 12.9927 11.6545 13 12 13C12.3455 13 12.6868 12.9927 13.0231 12.9786Z" fill="black"/>
<path d="M22 11.6429C22 11.0906 21.5523 10.6429 21 10.6429C20.4477 10.6429 20 11.0906 20 11.6429V13.3571C20 13.9094 20.4477 14.3571 21 14.3571C21.5523 14.3571 22 13.9094 22 13.3571V11.6429Z" fill="black"/>
<path d="M4 11.6429C4 11.0906 3.55228 10.6429 3 10.6429C2.44772 10.6429 2 11.0906 2 11.6429V13.3571C2 13.9094 2.44772 14.3571 3 14.3571C3.55228 14.3571 4 13.9094 4 13.3571V11.6429Z" fill="black"/>
<path d="M22 16.1429C22 15.5906 21.5523 15.1429 21 15.1429C20.4477 15.1429 20 15.5906 20 16.1429V17L19.9998 17.0029L19.999 17.0076C19.998 17.0122 19.9955 17.0215 19.9891 17.0361C19.976 17.0659 19.9463 17.1183 19.8821 17.1904C19.5146 17.6027 19.551 18.2348 19.9633 18.6022C20.3757 18.9697 21.0078 18.9333 21.3752 18.521C21.7303 18.1225 22 17.6084 22 17V16.1429Z" fill="black"/>
<path d="M4 16.1429C4 15.5906 3.55228 15.1429 3 15.1429C2.44772 15.1429 2 15.5906 2 16.1429V17C2 17.6084 2.26972 18.1225 2.6248 18.521C2.99223 18.9333 3.62435 18.9697 4.03667 18.6022C4.44899 18.2348 4.48538 17.6027 4.11795 17.1904C4.05372 17.1183 4.02398 17.0659 4.0109 17.0361C4.00453 17.0215 4.00202 17.0122 4.00101 17.0076C4.00005 17.0032 4 17 4 17V16.1429Z" fill="black"/>
<path d="M6.37455 18.3039C5.84411 18.1501 5.28942 18.4554 5.13562 18.9859C4.98182 19.5163 5.28715 20.071 5.81758 20.2248C6.42313 20.4004 7.08656 20.5489 7.79315 20.6675C8.33782 20.7589 8.85345 20.3914 8.94485 19.8468C9.03625 19.3021 8.6688 18.7864 8.12413 18.6951C7.48333 18.5875 6.89628 18.4552 6.37455 18.3039Z" fill="black"/>
<path d="M18.1824 20.2248C18.7129 20.071 19.0182 19.5163 18.8644 18.9859C18.7106 18.4554 18.1559 18.1501 17.6255 18.3039C17.1037 18.4552 16.5167 18.5875 15.8759 18.6951C15.3312 18.7864 14.9638 19.3021 15.0551 19.8468C15.1465 20.3914 15.6622 20.7589 16.2068 20.6675C16.9134 20.5489 17.5769 20.4004 18.1824 20.2248Z" fill="black"/>
<path d="M11.0804 18.9839C10.5285 18.9645 10.0653 19.3963 10.0459 19.9482C10.0265 20.5001 10.4582 20.9633 11.0102 20.9827C11.3356 20.9941 11.6658 21 12 21C12.3342 21 12.6644 20.9941 12.9898 20.9827C13.5418 20.9633 13.9735 20.5001 13.9541 19.9482C13.9347 19.3963 13.4715 18.9645 12.9196 18.9839C12.6176 18.9946 12.3108 19 12 19C11.6892 19 11.3824 18.9946 11.0804 18.9839Z" fill="black"/>
</svg>

<svg xmlns="http://www.w3.org/2000/svg" width="24" height="24" fill="none" viewBox="0 0 24 24"><path fill="#000" fill-rule="evenodd" d="M12 4a24 24 0 0 0-1.0231.0214c-.5518.0233-.9802.4895-.957 1.0413.0233.5518.4895.9802 1.0413.957a22.3 22.3 0 0 1 1.8777 0c.5517.0232 1.0179-.4052 1.0412-.957s-.4052-1.018-.957-1.0413A24 24 0 0 0 12 4M8.0536 6.3726c.5413-.1094.8915-.637.782-1.1783-.1094-.5414-.6369-.8915-1.1782-.7821-.7263.1468-1.4069.3307-2.0253.5483-.521.1833-.7947.7542-.6114 1.2752s.7542.7947 1.2752.6114c.5198-.1829 1.1097-.3436 1.7577-.4745m8.289-1.9604c-.5413-.1094-1.0688.2407-1.1782.782-.1095.5414.2407 1.069.782 1.1784.648.131 1.2379.2916 1.7577.4745.521.1833 1.0919-.0904 1.2752-.6114s-.0904-1.092-.6114-1.2752c-.6184-.2176-1.299-.4015-2.0253-.5483M4.1316 8.156c.3149-.4538.2023-1.0769-.2515-1.3917s-1.0768-.2022-1.3916.2515C2.1922 7.4428 2 7.9444 2 8.5s.1922 1.0572.4885 1.4842c.3148.4537.9379.5663 1.3916.2515s.5664-.9379.2515-1.3917C4.0236 8.6882 4 8.577 4 8.5s.0235-.1882.1316-.344m17.3799-1.1402c-.3148-.4537-.9379-.5663-1.3916-.2515s-.5664.9379-.2515 1.3917c.1081.1558.1316.267.1316.344s-.0235.1882-.1316.344c-.3149.4538-.2023 1.0769.2515 1.3917s1.0768.2022 1.3916-.2515C21.8078 9.5572 22 9.0556 22 8.5s-.1922-1.0572-.4885-1.4842M6.2959 10.153c-.521-.1833-1.092.0904-1.2752.6114-.1833.521.0904 1.0919.6114 1.2752.6184.2176 1.299.4015 2.0253.5483.5413.1094 1.0688-.2407 1.1782-.7821.1095-.5413-.2407-1.0689-.782-1.1783-.648-.1309-1.2379-.2916-1.7577-.4745m12.072 1.8866c.521-.1833.7947-.7542.6114-1.2752s-.7542-.7947-1.2752-.6114c-.5198.1829-1.1097.3436-1.7577.4745-.5413.1094-.8915.637-.782 1.1783.1094.5414.6369.8915 1.1782.7821.7263-.1468 1.4069-.3307 2.0253-.5483M4 11.6429c0-.5523-.4477-1-1-1s-1 .4477-1 1v1.7142c0 .5523.4477 1 1 1s1-.4477 1-1zm18 0c0-.5523-.4477-1-1-1s-1 .4477-1 1v1.7142c0 .5523.4477 1 1 1s1-.4477 1-1zm-8.9769 1.3357c.5518-.0233.9802-.4895.957-1.0413-.0233-.5518-.4895-.9802-1.0412-.957a22.3 22.3 0 0 1-1.8777 0c-.5518-.0232-1.018.4052-1.0413.957s.4052 1.018.957 1.0413a24.4 24.4 0 0 0 2.0462 0M21 15.1429c.5523 0 1 .4477 1 1V17c0 .6084-.2697 1.1225-.6248 1.521-.3674.4123-.9995.4487-1.4119.0812s-.4487-.9995-.0812-1.4118c.0642-.0721.0939-.1245.107-.1543a.15.15 0 0 0 .0099-.0285l.0008-.0047L20 17v-.8571c0-.5523.4477-1 1-1m-17 1c0-.5523-.4477-1-1-1s-1 .4477-1 1V17c0 .6084.2697 1.1225.6248 1.521.3674.4123.9995.4487 1.4119.0812s.4487-.9995.0812-1.4118c-.0642-.0721-.094-.1245-.107-.1543a.16.16 0 0 1-.0099-.0285A.04.04 0 0 1 4 17zm2.3745 2.161c-.5304-.1538-1.085.1515-1.2389.682-.1538.5304.1515 1.0851.682 1.2389.6055.1756 1.269.3241 1.9756.4427.5446.0914 1.0603-.2761 1.1517-.8207s-.2761-1.0603-.8208-1.1517c-.6408-.1076-1.2278-.2399-1.7496-.3912m11.8079 1.9209c.5305-.1538.8358-.7085.682-1.2389-.1538-.5305-.7085-.8358-1.2389-.682-.5218.1513-1.1088.2836-1.7496.3912-.5447.0914-.9121.607-.8207 1.1517.0913.5446.607.9121 1.1517.8207.7065-.1186 1.37-.2671 1.9755-.4427m-7.102-1.2409c-.5519-.0194-1.0151.4124-1.0345.9643s.4123 1.0151.9643 1.0345a28.3 28.3 0 0 0 1.9796 0c.552-.0194.9837-.4826.9643-1.0345s-.4826-.9837-1.0345-.9643q-.4532.016-.9196.0161t-.9196-.0161"/></svg>
